dist/images/icons/line-s.svg

<svg width="356" height="336" viewBox="0 0 356 336" fill="none" xmlns="http://www.w3.org/2000/svg">
<path opacity="0.1" d="M1.27858 234.368C-1.31499 240.029 1.17066 246.719 6.83042 249.311C12.4902 251.903 19.1808 249.415 21.7744 243.754L1.27858 234.368ZM160.245 23.3342L154.248 13.7912L160.245 23.3342ZM208.601 120.787L199.941 113.574L199.941 113.574L208.601 120.787ZM113.902 255.66L104.304 249.75C104.174 249.961 104.051 250.177 103.936 250.396L113.902 255.66ZM344.915 194.271C344.265 188.079 338.718 183.589 332.527 184.241L231.628 194.875C225.437 195.528 220.945 201.076 221.595 207.268C222.246 213.459 227.792 217.949 233.984 217.297L323.672 207.844L333.095 297.53C333.746 303.722 339.293 308.212 345.484 307.56C351.676 306.907 356.168 301.359 355.517 295.167L344.915 194.271ZM21.7744 243.754C34.7104 215.52 57.641 170.86 84.2175 128.99C111.132 86.5868 140.595 49.0019 166.243 32.8773L154.248 13.7912C123.849 32.9024 92.0618 74.5672 65.1841 116.912C37.9678 159.79 14.5625 205.375 1.27858 234.368L21.7744 243.754ZM166.243 32.8773C182.279 22.7953 193.622 21.5276 200.837 23.3709C207.764 25.1406 213.414 30.4339 216.902 39.5087C224.136 58.3269 220.026 89.4619 199.941 113.574L217.261 128.001C241.787 98.5584 248.529 58.9444 237.947 31.4135C232.527 17.3137 222.102 5.5324 206.424 1.52676C191.034 -2.4053 173.241 1.8508 154.248 13.7912L166.243 32.8773ZM199.941 113.574C163.727 157.046 121.078 222.517 104.304 249.75L123.499 261.57C140.117 234.591 182.095 170.216 217.261 128.001L199.941 113.574ZM103.936 250.396C99.1385 259.473 94.4774 270.387 91.6543 281.215C88.9228 291.692 87.4609 303.762 90.9461 314.17C92.7752 319.632 96.0081 324.731 101.091 328.6C106.129 332.436 112.281 334.53 119.124 335.198C132.392 336.492 149.719 332.575 171.771 323.353L163.078 302.553C142.101 311.325 128.971 313.505 121.321 312.759C117.704 312.406 115.782 311.445 114.751 310.66C113.764 309.909 112.933 308.822 112.325 307.005C110.934 302.853 111.102 295.982 113.47 286.897C115.747 278.164 119.657 268.893 123.868 260.925L103.936 250.396ZM171.771 323.353C259.736 286.566 321.854 228.002 342.465 202.544L324.944 188.36C306.416 211.245 247.228 267.362 163.078 302.553L171.771 323.353Z" fill="#ABABAB"/>
</svg>

<svg xmlns="http://www.w3.org/2000/svg" width="356" height="336" fill="none"><path fill="#ABABAB" d="M1.279 234.368c-2.594 5.661-.108 12.351 5.551 14.943 5.66 2.592 12.35.104 14.944-5.557zM160.245 23.334l-5.997-9.543zm48.356 97.453-8.66-7.213zM113.902 255.66l-9.598-5.91q-.195.317-.368.646zm231.013-61.389c-.65-6.192-6.197-10.682-12.388-10.03l-100.899 10.634c-6.191.653-10.683 6.201-10.033 12.393.651 6.191 6.197 10.681 12.389 10.029l89.688-9.453 9.423 89.686c.651 6.192 6.198 10.682 12.389 10.03 6.192-.653 10.684-6.201 10.033-12.393zm-323.14 49.483C34.71 215.52 57.64 170.86 84.217 128.99c26.914-42.403 56.377-79.988 82.025-96.113l-11.995-19.086c-30.399 19.111-62.186 60.776-89.064 103.121C37.968 159.79 14.563 205.375 1.28 234.368zM166.242 32.877c16.036-10.082 27.379-11.35 34.594-9.506 6.927 1.77 12.577 7.063 16.065 16.138 7.234 18.818 3.124 49.953-16.961 74.065l17.32 14.427c24.526-29.443 31.268-69.057 20.686-96.587-5.42-14.1-15.845-25.882-31.523-29.887-15.39-3.932-33.183.324-52.176 12.264zm33.698 80.697c-36.214 43.472-78.863 108.943-95.637 136.176l19.195 11.82c16.618-26.979 58.596-91.354 93.762-133.569zm-96.005 136.822c-4.798 9.077-9.459 19.991-12.282 30.819-2.731 10.477-4.193 22.547-.708 32.955 1.83 5.462 5.062 10.561 10.145 14.43 5.038 3.836 11.19 5.93 18.033 6.598 13.268 1.294 30.595-2.623 52.647-11.845l-8.693-20.8c-20.977 8.772-34.107 10.952-41.757 10.206-3.617-.353-5.539-1.314-6.57-2.099-.987-.751-1.818-1.838-2.426-3.655-1.391-4.152-1.223-11.023 1.145-20.108 2.277-8.733 6.187-18.004 10.398-25.972zm67.835 72.957c87.965-36.787 150.083-95.351 170.694-120.809l-17.521-14.184c-18.528 22.885-77.716 79.002-161.866 114.193z" opacity=".1"/></svg>
